front/src/Assets/image/landing/facebook.svg

<svg xmlns="http://www.w3.org/2000/svg" fill="none" viewBox="0 0 24 24">
  <path fill="url(#paint0_linear_167_875)" d="M10.5 20.9C6.25 20.15 3 16.45 3 12c0-4.95 4.05-9 9-9s9 4.05 9 9c0 4.45-3.25 8.15-7.5 8.9l-.5-.4h-2l-.5.4z"/>
  <path fill="#fff" d="M15.5 14.5l.4-2.5h-2.4v-1.75c0-.7.25-1.25 1.35-1.25H16V6.7c-.65-.1-1.35-.2-2-.2-2.05 0-3.5 1.25-3.5 3.5v2H8.25v2.5h2.25v6.35a7.631 7.631 0 003 0V14.5h2z"/>
  <defs>
    <linearGradient id="paint0_linear_167_875" x1="12" x2="12" y1="20.38" y2="3" gradientUnits="userSpaceOnUse">
      <stop stop-color="#0062E0"/>
      <stop offset="1" stop-color="#19AFFF"/>
    </linearGradient>
  </defs>
</svg>

<svg width="24" height="24" viewBox="0 0 24 24" fill="none" xmlns="http://www.w3.org/2000/svg">
<path d="M10.5 20.9C6.25 20.15 3 16.45 3 12C3 7.05 7.05 3 12 3C16.95 3 21 7.05 21 12C21 16.45 17.75 20.15 13.5 20.9L13 20.5H11L10.5 20.9Z" fill="url(#paint0_linear_167_875)"/>
<path d="M15.5 14.5L15.9 12H13.5V10.25C13.5 9.55 13.75 9 14.85 9H16V6.7C15.35 6.6 14.65 6.5 14 6.5C11.95 6.5 10.5 7.75 10.5 10V12H8.25V14.5H10.5V20.85C11 20.95 11.5 21 12 21C12.5 21 13 20.95 13.5 20.85V14.5H15.5Z" fill="white"/>
<defs>
<linearGradient id="paint0_linear_167_875" x1="12" y1="20.377" x2="12" y2="3" gradientUnits="userSpaceOnUse">
<stop stop-color="#0062E0"/>
<stop offset="1" stop-color="#19AFFF"/>
</linearGradient>
</defs>
</svg>
